src/actions/22/gnumeric-object-combo.svg

<svg id="svg6" version="1.1" viewBox="0 0 22 22" xmlns="http://www.w3.org/2000/svg">
    <defs id="defs3051">
        <style id="current-color-scheme" type="text/css">.ColorScheme-Text {
        color:#363636;
      }</style>
    </defs>
    <path id="path4" class="ColorScheme-Text" d="m3 3v16h16v-16h-15zm11.621094 1 1.378906 0.8183594 1.378906-0.8183594 0.621094 0.8183594-1.689453 1-0.310547 0.1816406-0.310547-0.1816406-1.689453-1zm-10.621094 3h14v11h-14zm1 2v1h12v-1zm0 3v1h10v-1zm0 3v1h8v-1z" fill="currentColor"/>
</svg>

<svg xmlns="http://www.w3.org/2000/svg" viewBox="0 0 22 22">
    <path fill="currentColor" d="M3 3v16h16V3H4zm11.621 1L16 4.818 17.379 4l.621.818-1.69 1L16 6l-.31-.182-1.69-1zM4 7h14v11H4zm1 2v1h12V9zm0 3v1h10v-1zm0 3v1h8v-1z" style="color:#050505;opacity:.7"/>
</svg>
